assets/icons/bowtie/1.22/uE637-favorite-outline.svg

<svg xmlns="http://www.w3.org/2000/svg" viewBox="0 0 448 448" enable-background="new 0 0 448 448"><path d="M448 160h-171.5l-52.5-160-52.5 160h-171.5l138.264 109.031-54.264 178.969 140-108.801 140 108.801-54.264-179.244 138.264-108.756zm-224 138.672l-80.172 62.313 31.391-103.563-82.953-65.422h102.406l29.328-89.359 29.328 89.359h102.219l-82.766 65.109 31.453 103.922-80.234-62.359z"/></svg>

<svg xmlns="http://www.w3.org/2000/svg" viewBox="0 0 448 448"><path d="M448 160H276.5L224 0l-52.5 160H0l138.264 109.03L84 448l140-108.8L364 448l-54.264-179.244L448 160zM224 298.672l-80.172 62.313 31.39-103.563L92.268 192h102.405L224 102.64 253.328 192h102.22l-82.767 65.11 31.456 103.92L224 298.673z"/></svg>
